X:110
T:Kendal ghyll
A:Wyresdale, Lancashire
B:E and J Winder, 1835-41
L:1/8
M:6/8
N:illegible text follows this ... "Thomas Spadeon Thos. La"
O:England
R:32-bar Jig
Z:Richard Robinson 
%%TUNEURL: http://www.leeds.ac.uk/music/Info/RRTuneBk/gettune/00000e95.html
%%ID:00000e95
K:G
d2e f2g | fed cBA | d2e f2g | agf gfe | \
d3  def | A3  AGF | G2B A2G | AFD D3 ::
F3 A3 | cBA cBA | G3 B3 | dcB dcB | \
F3 A3 | cBA cBA | G3 A3 | B2G FED :|
%%newpage
%page 9
